justvector/gowalla_alt.svg

<?xml version="1.0" encoding="iso-8859-1"?>
<!-- Generator: Adobe Illustrator 15.0.0, SVG Export Plug-In . SVG Version: 6.00 Build 0)  -->
<!DOCTYPE svg PUBLIC "-//W3C//DTD SVG 1.1//EN" "http://www.w3.org/Graphics/SVG/1.1/DTD/svg11.dtd">
<svg version="1.1" id="Icons" xmlns="http://www.w3.org/2000/svg" xmlns:xlink="http://www.w3.org/1999/xlink" x="0px" y="0px"
	 width="100px" height="100px" viewBox="0 0 100 100" style="enable-background:new 0 0 100 100;" xml:space="preserve">
<path id="Gowalla__x28_alt_x29_" style="fill-rule:evenodd;clip-rule:evenodd;" d="M29.132,5.234C29.75,5.153,30.362,5.073,30.974,5
	c2.837,0.348,4.289,2.568,4.523,6.376c0.378,6.108-1.978,12.98-3.084,17.276c10.348,2.296,18.698,7.5,23.93,16.775
	c2.375,4.215,4.484,9.086,4.731,15.235c0.033,0.935-0.391,2.315-0.195,3.137c0.215,0.93,1.601,2.042,2.355,2.804
	c2.278,2.32,5.5,5.372,8.259,6.342c5.024,1.767,12.196-1.319,17.005-2.329c3.221-0.675,5.356-0.354,6.307,2.148
	c0.065,0.536,0.13,1.07,0.195,1.606c-0.951,3.586-4.38,5.727-7.869,7.527c-10.054,5.179-26.559,7.809-39.979,7.648
	c-2.524,2.194-6.006,3.626-10.106,4.556c-2.03,0.261-4.068,0.522-6.098,0.783c-5.063,0.193-10.947,0.488-13.823-2.368
	c-1.315-1.306-2.298-3.755-1.758-6.144c0.833-3.706,5.35-5.949,9.801-7.039c-0.156-1.245-1.093-2.308-1.588-3.641
	c-1.926-5.098-1.347-11.688,0.404-15.603c-1.1-0.408-2.447-0.488-3.56-0.877c-0.423,1.211-0.312,2.229-0.924,3.078
	c-2.459,3.418-9.027,1.928-8.636-3.479c0.241-3.259,4.966-5.868,7.589-7.487c1.398-0.863,3.332-1.888,4.985-2.863
	c1.62-0.958,3.515-2.27,3.879-3.607c0.403-1.466-0.26-3.767-0.723-4.797c-0.697,0.066-0.989,0.896-1.419,1.371
	c-1.36,1.5-2.942,2.985-4.64,4.444c-2.187,1.872-4.621,3.98-7.484,4.81c-3.605,1.044-6.599-0.455-7.823-3.88
	C5.156,46.169,5.078,45.539,5,44.91c1.484-7.634,7.699-11.488,14.467-14.892c-2.688-3.033-8.031-7.775-8.668-14.434
	c-0.273-2.945,0.859-5.62,3.052-6.905c3.931-2.315,7.088,1.633,9.482,3.372C24.492,9.154,26.041,6.572,29.132,5.234z M49.04,39.846
	c-4.205-4.202-9.983-7.479-16.752-8.657c-1.328-0.236-2.33-0.336-2.57-1.004c-0.163-0.448,0.234-1.754,0.527-2.737
	c1.425-4.737,2.661-8.39,2.928-13.85c0.15-3.026-0.461-7.448-3.598-5.901c-2.545,1.25-3.808,4.321-4.667,6.669
	c2.46,2.195,6.912,12.934,0.131,12.867c-4.862-0.053-3.684-9.427-2.682-12.539c-1.119-1.011-1.751-1.981-2.942-2.884
	c-0.82-0.623-2.134-1.927-4.178-1.238c-1.25,0.416-1.972,2.148-2.095,2.931c-0.183,1.192,0.058,2.55,0.286,3.521
	c0.99,4.254,4.731,8.617,7.211,10.772c0.872,0.763,2.955,1.323,2.903,2.589c-0.027,1.011-2.786,1.666-4.179,2.315
	c-1.887,0.882-3.208,1.786-4.165,2.456c-2.655,1.867-5.154,3.82-6.599,6.182c-0.599,0.99-1.51,2.73-1.185,4.442
	c0.391,2.067,2.226,3.185,4.641,2.663c2.545-0.542,5.46-2.944,7.999-5.319c1.21-1.13,2.017-1.8,3.345-3.245
	c0.95-1.023,2.187-3.319,3.358-3.245c1.178,0.081,2.447,3.345,2.708,4.542c0.801,3.547-0.345,5.862-1.719,7.181
	c-1.933,1.853-5.017,3.064-8.049,4.883c-1.933,1.159-6.515,3.741-6.45,6.156c0.065,2.784,3.696,2.897,4.445,1.058
	c0.488-1.211-0.657-3.199,0.254-3.881c0.904-0.682,2.733,0.255,3.501,0.434c1.51,0.355,2.747,0.656,3.554,0.736
	c1.737-2,3.462-5.941,7.055-5.941c3.117,0,5.031,5.193,2.759,7.339c-2.154,2.055-5.545,1.279-8.344,1.225
	c-2.72,4.296-2.238,14.071,1.36,18.332c3.118-0.286,6.014-0.274,8.65,0.074c-5.891-8.176-2.213-20.655,7.555-21.993
	c8.682-1.197,14.025,4.671,14.761,5.379C58.092,51.962,54.383,45.198,49.04,39.846z M25.318,24.825
	c1.452-0.081,1.139-2.249,0.709-3.647c-0.456-1.493-1.25-2.575-1.731-3.626c-0.027-0.086-0.046-0.167-0.169-0.126
	C23.724,18.963,23.216,24.952,25.318,24.825z M27.778,58.125c1.888,0.026,4.438,0.274,5.636-1.023
	c0.215-1.139-0.312-2.27-0.917-2.837C30.03,54.339,28.748,56.418,27.778,58.125z M44.322,59.11
	c-8.246,1.371-10.849,12.05-5.838,18.373c1.035,1.305,3.736,2.79,3.631,3.827c-0.123,1.278-1.373,0.856-2.375,0.603
	c-3.118-0.796-6.665-1.266-9.905-0.951c3.404,4.022,9.56,5.861,16.166,6.216c2.265-1.853,3.163-5.968,1.314-9.346
	c-0.709-1.292-1.861-1.793-1.491-2.771c0.397-1.037,1.959-0.596,3.228-0.71c5.512-0.508,8.09-4.964,9.235-9.334
	C54.513,61.699,50.908,58.011,44.322,59.11z M49.333,76.679c2.037,3.078,1.126,7.754,0.052,9.916
	c-0.007,0.019-0.365,0.622-0.072,0.603c13.973-0.503,31.48-2.904,40.454-9.636c1.185-0.883,3.28-2.649,2.825-4.061
	c-0.638-1.959-5.955,0.208-7.692,0.689c-2.538,0.696-6.053,1.397-8.883,1.578c-7.823,0.503-11.187-4.675-15.457-8.671
	c-0.189-0.215-0.378-0.401-0.45-0.093C58.503,71.815,55.73,75.695,49.333,76.679z M28.045,82.821
	c-0.833-0.856-0.898-1.727-2.044-1.372c-3.774,1.186-8.506,2.776-8.435,6.417c0.04,2.422,1.979,3.686,3.385,4.155
	c2.72,0.916,7.061,0.682,11.128,0.348c4.283-0.348,8.545-1.399,11.012-3.038C37.137,88.555,31.787,86.681,28.045,82.821z"/>
</svg>

<?xml version="1.0" encoding="UTF-8" standalone="no"?>
<!DOCTYPE svg PUBLIC "-//W3C//DTD SVG 1.1//EN" "http://www.w3.org/Graphics/SVG/1.1/DTD/svg11.dtd">
<svg width="100%" height="100%" viewBox="0 0 100 100" version="1.1" xmlns="http://www.w3.org/2000/svg" xmlns:xlink="http://www.w3.org/1999/xlink" xml:space="preserve" xmlns:serif="http://www.serif.com/" style="fill-rule:evenodd;clip-rule:evenodd;stroke-linejoin:round;stroke-miterlimit:2;">
    <path id="Gowalla__x28_alt_x29_" d="M29.132,5.234C29.75,5.153 30.362,5.073 30.974,5C33.811,5.348 35.263,7.568 35.497,11.376C35.875,17.484 33.519,24.356 32.413,28.652C42.761,30.948 51.111,36.152 56.343,45.427C58.718,49.642 60.827,54.513 61.074,60.662C61.107,61.597 60.683,62.977 60.879,63.799C61.094,64.729 62.48,65.841 63.234,66.603C65.512,68.923 68.734,71.975 71.493,72.945C76.517,74.712 83.689,71.626 88.498,70.616C91.719,69.941 93.854,70.262 94.805,72.764C94.87,73.3 94.935,73.834 95,74.37C94.049,77.956 90.62,80.097 87.131,81.897C77.077,87.076 60.572,89.706 47.152,89.545C44.628,91.739 41.146,93.171 37.046,94.101C35.016,94.362 32.978,94.623 30.948,94.884C25.885,95.077 20.001,95.372 17.125,92.516C15.81,91.21 14.827,88.761 15.367,86.372C16.2,82.666 20.717,80.423 25.168,79.333C25.012,78.088 24.075,77.025 23.58,75.692C21.654,70.594 22.233,64.004 23.984,60.089C22.884,59.681 21.537,59.601 20.424,59.212C20.001,60.423 20.112,61.441 19.5,62.29C17.041,65.708 10.473,64.218 10.864,58.811C11.105,55.552 15.83,52.943 18.453,51.324C19.851,50.461 21.785,49.436 23.438,48.461C25.058,47.503 26.953,46.191 27.317,44.854C27.72,43.388 27.057,41.087 26.594,40.057C25.897,40.123 25.605,40.953 25.175,41.428C23.815,42.928 22.233,44.413 20.535,45.872C18.348,47.744 15.914,49.852 13.051,50.682C9.446,51.726 6.452,50.227 5.228,46.802C5.156,46.169 5.078,45.539 5,44.91C6.484,37.276 12.699,33.422 19.467,30.018C16.779,26.985 11.436,22.243 10.799,15.584C10.526,12.639 11.658,9.964 13.851,8.679C17.782,6.364 20.939,10.312 23.333,12.051C24.492,9.154 26.041,6.572 29.132,5.234ZM49.04,39.846C44.835,35.644 39.057,32.367 32.288,31.189C30.96,30.953 29.958,30.853 29.718,30.185C29.555,29.737 29.952,28.431 30.245,27.448C31.67,22.711 32.906,19.058 33.173,13.598C33.323,10.572 32.712,6.15 29.575,7.697C27.03,8.947 25.767,12.018 24.908,14.366C27.368,16.561 31.82,27.3 25.039,27.233C20.177,27.18 21.355,17.806 22.357,14.694C21.238,13.683 20.606,12.713 19.415,11.81C18.595,11.187 17.281,9.883 15.237,10.572C13.987,10.988 13.265,12.72 13.142,13.503C12.959,14.695 13.2,16.053 13.428,17.024C14.418,21.278 18.159,25.641 20.639,27.796C21.511,28.559 23.594,29.119 23.542,30.385C23.515,31.396 20.756,32.051 19.363,32.7C17.476,33.582 16.155,34.486 15.198,35.156C12.543,37.023 10.044,38.976 8.599,41.338C8,42.328 7.089,44.068 7.414,45.78C7.805,47.847 9.64,48.965 12.055,48.443C14.6,47.901 17.515,45.499 20.054,43.124C21.264,41.994 22.071,41.324 23.399,39.879C24.349,38.856 25.586,36.56 26.757,36.634C27.935,36.715 29.204,39.979 29.465,41.176C30.266,44.723 29.12,47.038 27.746,48.357C25.813,50.21 22.729,51.421 19.697,53.24C17.764,54.399 13.182,56.981 13.247,59.396C13.312,62.18 16.943,62.293 17.692,60.454C18.18,59.243 17.035,57.255 17.946,56.573C18.85,55.891 20.679,56.828 21.447,57.007C22.957,57.362 24.194,57.663 25.001,57.743C26.738,55.743 28.463,51.802 32.056,51.802C35.173,51.802 37.087,56.995 34.815,59.141C32.661,61.196 29.27,60.42 26.471,60.366C23.751,64.662 24.233,74.437 27.831,78.698C30.949,78.412 33.845,78.424 36.481,78.772C30.59,70.596 34.268,58.117 44.036,56.779C52.718,55.582 58.061,61.45 58.797,62.158C58.092,51.962 54.383,45.198 49.04,39.846ZM25.318,24.825C26.77,24.744 26.457,22.576 26.027,21.178C25.571,19.685 24.777,18.603 24.296,17.552C24.269,17.466 24.25,17.385 24.127,17.426C23.724,18.963 23.216,24.952 25.318,24.825ZM27.778,58.125C29.666,58.151 32.216,58.399 33.414,57.102C33.629,55.963 33.102,54.832 32.497,54.265C30.03,54.339 28.748,56.418 27.778,58.125ZM44.322,59.11C36.076,60.481 33.473,71.16 38.484,77.483C39.519,78.788 42.22,80.273 42.115,81.31C41.992,82.588 40.742,82.166 39.74,81.913C36.622,81.117 33.075,80.647 29.835,80.962C33.239,84.984 39.395,86.823 46.001,87.178C48.266,85.325 49.164,81.21 47.315,77.832C46.606,76.54 45.454,76.039 45.824,75.061C46.221,74.024 47.783,74.465 49.052,74.351C54.564,73.843 57.142,69.387 58.287,65.017C54.513,61.699 50.908,58.011 44.322,59.11ZM49.333,76.679C51.37,79.757 50.459,84.433 49.385,86.595C49.378,86.614 49.02,87.217 49.313,87.198C63.286,86.695 80.793,84.294 89.767,77.562C90.952,76.679 93.047,74.913 92.592,73.501C91.954,71.542 86.637,73.709 84.9,74.19C82.362,74.886 78.847,75.587 76.017,75.768C68.194,76.271 64.83,71.093 60.56,67.097C60.371,66.882 60.182,66.696 60.11,67.004C58.503,71.815 55.73,75.695 49.333,76.679ZM28.045,82.821C27.212,81.965 27.147,81.094 26.001,81.449C22.227,82.635 17.495,84.225 17.566,87.866C17.606,90.288 19.545,91.552 20.951,92.021C23.671,92.937 28.012,92.703 32.079,92.369C36.362,92.021 40.624,90.97 43.091,89.331C37.137,88.555 31.787,86.681 28.045,82.821Z"/>
</svg>
